img/cont-5.svg

<svg width="44" height="40" viewBox="0 0 44 40" fill="none" xmlns="http://www.w3.org/2000/svg">
<circle cx="20" cy="20" r="20" fill="#F5E9EA"/>
<path d="M41.5 19.75V11C41.5 10.337 41.2366 9.70107 40.7678 9.23223C40.2989 8.76339 39.663 8.5 39 8.5H19C18.337 8.5 17.7011 8.76339 17.2322 9.23223C16.7634 9.70107 16.5 10.337 16.5 11V19.75H41.5Z" fill="#DA2B36"/>
<path d="M16.5 22.25V24.75C16.5 25.413 16.7634 26.0489 17.2322 26.5178C17.7011 26.9866 18.337 27.25 19 27.25H27.75V31H24C23.6685 31 23.3505 31.1317 23.1161 31.3661C22.8817 31.6005 22.75 31.9185 22.75 32.25C22.75 32.5815 22.8817 32.8995 23.1161 33.1339C23.3505 33.3683 23.6685 33.5 24 33.5H34C34.3315 33.5 34.6495 33.3683 34.8839 33.1339C35.1183 32.8995 35.25 32.5815 35.25 32.25C35.25 31.9185 35.1183 31.6005 34.8839 31.3661C34.6495 31.1317 34.3315 31 34 31H30.25V27.25H39C39.663 27.25 40.2989 26.9866 40.7678 26.5178C41.2366 26.0489 41.5 25.413 41.5 24.75V22.25H16.5Z" fill="#DA2B36"/>
<path d="M16.5 22.25V19.75H41.5V22.25H16.5Z" fill="#F0989F"/>
</svg>

<svg width="44" height="40" fill="none" xmlns="http://www.w3.org/2000/svg"><circle cx="20" cy="20" r="20" fill="#F5E9EA"/><path d="M41.5 19.75V11A2.5 2.5 0 0 0 39 8.5H19a2.5 2.5 0 0 0-2.5 2.5v8.75h25ZM16.5 22.25v2.5a2.5 2.5 0 0 0 2.5 2.5h8.75V31H24a1.25 1.25 0 0 0 0 2.5h10a1.25 1.25 0 0 0 0-2.5h-3.75v-3.75H39a2.5 2.5 0 0 0 2.5-2.5v-2.5h-25Z" fill="#DA2B36"/><path d="M16.5 22.25v-2.5h25v2.5h-25Z" fill="#F0989F"/></svg>
